X:1
T:Title
%%score ( 1 2 ) { 3 | 4 }
L:1/8
Q:1/4=85
M:3/4
K:F
V:1 treble nm="Drawbar Organ, Soprano"
V:2 treble 
V:3 treble nm="Church Organ, Bass"
V:4 bass 
V:1
 C>F [FA]3 [FA] | [Ac]>[FA] [Ec] [GB]3 | [FA]>[EG] [DF]3 [DF] | D>[DF] [EG]4 | E>[EG] [GB]3 [GB] | %5
w: By~Letha~H.~Sims~ * * *|||||
 [Bd]>[GB] [Fd] [Ac]3 | [Ac][FA] [D=B]3 [DB] | [Ec][Fd] [Ec]4 | [EB][DE] [^CA]3 [B,G] | z E z2 z2 | %10
w: |||||
 [Ac][Gc] [Fc]3 [Ac] | [GB][FA] [EG]4 | [GB][FB] [EB]3 [Ed] | [Ac][GB] [FA]4 | [Cc][CF] [CE]4 | %15
w: |||||
 [GB]2 [FA]4 | [EG]2 [CF]4- | [CF]2 z2 z2 |] %18
w: |||
V:2
 x6 | x6 | x6 | x6 | x6 | x6 | x6 | x6 | x6 | [B,D]C/B,/ [A,F]4 | x6 | x6 | x6 | x6 | x6 | x6 | %16
 x6 | x6 |] %18
V:3
 z2 C3 C- | C2 C4 | z2[K:bass] B,3 =B,- | B,2 G,4 | z2 G,4 | z2 F,4 | z2 G,4 | z2 C,4 | %8
 z2 A,3 B,,- | B,,G,, F,4 | z2 A,B, .C2 | z2[K:treble] CC CC | z2 G,G, .G,2 | z2 CC CC | %14
 z2[K:bass] B,B, B,2 | D2 C4 | B,2 A,4- | A,2 z2 z2 |] %18
V:4
 z2 F,3 A,- | A,2 G,4 | z2 D,3 D,- | D,2 C,4 | z2 C,4 | z2 F,,4 | z2 G,,4 | z2 C,,4 | z2 .A,,4 | %9
 z2 F,,4 | z2 F,G, .A,2 | z2 C,C, E,G, | z2 C,D, .E,2 | z2 F,F, F,F, | z2 G,G, G,2 | B,,2 C,4 | %16
 C,2 F,4- | F,2 z2 z2 |] %18

